X:16
T:Beaver, The
M:6/8
L:1/8
B:Thompson's Compleat Collection of 200 Favourite Country Dances, vol. 2 (London, 1765)
Z:Transcribed and edited by Flynn Titford-Mock, 2007
Z:abc's:AK/Fiddler's Companion
K:A
aed cBA | aed cBA | aed cBA | GAB B3 | aed cBA | aed cBA | dcB cBA | EFG A3 :|
|: Ace ecA | Bdf fdB | Ace ecA | eac B3 | Ace ecA | Bdf fdB | agf edc | dcB A3 :|

